X:30
T:Yankee Doodle
Z:Jack Campin  *  May 2000  *  http://www.campin.me.uk/
M:2/4
L:1/8
K:D
d2 ef|df  ec|d2  ef|d2 c2|d2 ef|gf  ed|cA Bc|d2 d2:|
d2 BG|Bd =c2|A>B AG|FG A2|d2 BG|Bd =c2|AB cA|d2 d2:|

